dist/svg/u1F9E5.svg

<?xml version="1.0" encoding="UTF-8"?><svg id="a" xmlns="http://www.w3.org/2000/svg" viewBox="0 0 40 40"><g><path d="M31.442,10.827c-1.089-3.406-4.254-5.717-7.829-5.717h-7.226c-3.575,0-6.74,2.311-7.829,5.717L3.005,34.405c-.102,.433,.171,.865,.606,.959l4.355,.939c.429,.092,.851-.18,.944-.609l3.368-15.566,1.059,4.93-1.974,11.13c-.075,.423,.25,.811,.68,.811h15.916c.43,0,.755-.388,.68-.811l-1.974-11.13,1.059-4.93,3.193,15.561c.088,.431,.51,.708,.941,.618l4.526-.947c.437-.091,.713-.525,.611-.96l-5.553-23.574Z" fill="#e6a400"/><path d="M24.407,3.344c-.26-.212-.584-.344-.936-.344h-6.939c-.353,0-.677,.131-.936,.344l4.406,9.32L24.407,3.344Z" fill="#df9f00"/><path d="M20.001,12.664L15.595,3.344c-.222,.181-.398,.419-.487,.706l-1.819,5.879c-.084,.272,.119,.548,.404,.548h2.476l-2.213,2.207c-.199,.198-.153,.531,.092,.668l4.448,2.495h0l1.505-3.183Z" fill="#ad7800"/><path d="M26.712,9.928l-1.819-5.879c-.089-.287-.266-.525-.487-.706l-4.406,9.32-1.505,3.183-1.086,2.298,8.544-4.793c.245-.137,.29-.47,.092-.668l-2.213-2.207h2.476c.285,0,.488-.276,.404-.548Z" fill="#ad7800"/><circle cx="17.01" cy="21.213" r="1.009" fill="#b87f00"/><circle cx="23.397" cy="21.213" r="1.009" fill="#b87f00"/><circle cx="17.01" cy="30.151" r="1.009" fill="#b87f00"/><circle cx="23.397" cy="30.151" r="1.009" fill="#b87f00"/><polygon points="20.001 12.664 17.409 15.238 18.496 15.847 20.001 12.664" fill="#875e00"/><rect x="13.17" y="24.282" width="13.677" height="1.802" fill="#b87f00"/></g><rect width="40" height="40" fill="none"/></svg>

<svg id="Layer_1" data-name="Layer 1" xmlns="http://www.w3.org/2000/svg" viewBox="0 0 40 40"><defs><style>.cls-1{fill:#e6a400;}.cls-2{fill:#df9f00;}.cls-3{fill:#ad7800;}.cls-4{fill:#b87f00;}.cls-5{fill:#875e00;}.cls-6{fill:none;}</style></defs><path class="cls-1" d="M31.442,10.827A8.218,8.218,0,0,0,23.613,5.11H16.388a8.218,8.218,0,0,0-7.829,5.717L3.005,34.405a.794.794,0,0,0,.606.959l4.355.939a.8.8,0,0,0,.944-.609l3.368-15.565,1.059,4.93-1.975,11.13a.691.691,0,0,0,.681.811H27.958a.691.691,0,0,0,.681-.811l-1.975-11.13,1.06-4.93,3.193,15.56a.794.794,0,0,0,.941.618l4.526-.947a.794.794,0,0,0,.611-.959Z"/><path class="cls-2" d="M24.407,3.344A1.475,1.475,0,0,0,23.47,3H16.531a1.47,1.47,0,0,0-.936.344L20,12.664Z"/><path class="cls-3" d="M20,12.664,15.6,3.344a1.465,1.465,0,0,0-.487.706L13.289,9.928a.423.423,0,0,0,.4.548h2.476l-2.213,2.208a.423.423,0,0,0,.091.668L18.5,15.847h0Z"/><path class="cls-3" d="M26.712,9.928,24.894,4.05a1.479,1.479,0,0,0-.487-.706L20,12.664,18.5,15.847l-1.087,2.3,8.545-4.793a.423.423,0,0,0,.092-.668l-2.214-2.208h2.476A.423.423,0,0,0,26.712,9.928Z"/><circle class="cls-4" cx="17.01" cy="21.213" r="1.009"/><circle class="cls-4" cx="23.397" cy="21.213" r="1.009"/><circle class="cls-4" cx="17.01" cy="30.151" r="1.009"/><circle class="cls-4" cx="23.397" cy="30.151" r="1.009"/><polygon class="cls-5" points="20.001 12.664 17.409 15.238 18.496 15.847 20.001 12.664"/><rect class="cls-4" x="13.17" y="24.282" width="13.677" height="1.802"/><rect class="cls-6" width="40" height="40"/></svg>
